X: 7
T: No_113_Song_of_the_Thunders.krn
N: Derived from No_113_Song_of_the_Thunders.krn
%%abc-version 2.0
%%abcx-abcm2ps-target-version 5.9.1 (29 Sep 2008)
%%abc-creator hum2abc beta
%%abcx-conversion-date 2019/03/15 08:29:13
%%humdrum-veritas 553600377
%%humdrum-veritas-data 4234481547
%%linebreak <none>
%%barnumbers 0
L: 1/8
M: 2/4
%%staves {1 2}
V: 1 clef=bass
V: 2 clef=bass
K: Bb
[V:1] [K:clef=bass][M:2/4]FFF2- | 
[V:2] [K:clef=bass][M:2/4](3!accent!G,, z G,, (3!accent!G,, z G,, | 
[V:1] F2D2 | 
[V:2] z4 | 
[V:1] FD F/D/C/B,/- ||  
[V:2] z4 ||  
[V:1] [M:3/4]B,3/B,/B,3B, | 
[V:2] [M:3/4]z6 | 
[V:1] B,6 ||  
[V:2] z6 ||  
[V:1] [M:2/4]FFF2- | 
[V:2] [M:2/4]z4 | 
[V:1] F2D2 | 
[V:2] z4 | 
[V:1] FD (3FDC ||  
[V:2] z4 ||  
[V:1] [M:3/4]B,3/B,/B,3B, | 
[V:2] [M:3/4]z6 | 
[V:1] B,6 | 
[V:2] z6 | 
[V:1] F2FD FD ||  
[V:2] z6 ||  
[V:1] [M:2/4]B,2B,B, | 
[V:2] [M:2/4]z4 | 
[V:1] (3G,B,B, (3B,B,G, | 
[V:2] z4 | 
[V:1] F,2F,F, ||  
[V:2] z4 ||  
[V:1] [M:3/4]F,6 ||  
[V:2] [M:3/4]z6 ||  
[V:1] [M:2/4]B,B, B,(G,3//B,//) | 
[V:2] [M:2/4]z4 | 
[V:1] F,2F,3/B,/ | 
[V:2] z4 | 
[V:1] F,2D,2 | 
[V:2] z4 | 
[V:1] F,4 | 
[V:2] z4 | 
[V:1] D,2F,/D,3/ | 
[V:2] z4 | 
[V:1] B,,3/B,,/B,,2 | 
[V:2] z4 | 
[V:1] B,,4 |]  
[V:2] z4 |]  



